dist/assets/img/logo/login-logo.svg

<svg width="12" height="24" viewBox="0 0 12 24" fill="none" xmlns="http://www.w3.org/2000/svg">
<path fill-rule="evenodd" clip-rule="evenodd" d="M3.14776 23.987C3.40034 23.3387 3.9058 23.0793 4.41156 22.8199C4.41156 22.8199 4.28512 22.5608 4.03224 21.9125C4.03224 21.6531 4.15868 21.5236 4.28512 21.5236C5.04317 21.3938 5.54893 21.1344 5.92825 20.7454C6.43371 20.227 6.6863 19.5786 6.6863 19.0599C6.05439 18.9301 5.54893 19.0599 5.04346 19.3193C4.538 19.5786 4.03224 19.9676 3.77966 20.4863C3.65322 20.4863 3.52678 20.3565 3.52678 20.3565C3.52678 19.7082 3.77966 19.1897 4.28483 18.9303C5.67508 18.0226 6.76825 17.6964 8.15849 16.6591C10.8307 14.3927 10.9715 13.5931 11.6748 11.0605C9.00288 15.3261 1.2658 16.126 1.88395 21.3938C2.0101 21.6531 2.89488 23.8575 3.14776 23.987V23.987Z" fill="url(#paint0_linear)"/>
<path fill-rule="evenodd" clip-rule="evenodd" d="M4.15899 0L1.50435 3.37111C3.77938 4.27881 9.08748 6.87206 8.70816 9.85424C8.70816 10.2432 8.32914 10.7617 7.69724 11.1506C5.16962 12.966 1.23713 14.354 0.984253 17.7254C0.984253 18.5033 1.16777 19.6097 1.54708 20.258C2.05284 12.7379 22.9899 13.4847 4.15869 0H4.15899Z" fill="url(#paint1_linear)"/>
<path fill-rule="evenodd" clip-rule="evenodd" d="M0.7747 15.4319C0.7747 15.691 0.900846 15.8209 1.02729 15.8209C1.4066 14.7836 1.65948 13.7464 1.78563 12.8387C1.4066 11.4125 1.53275 10.5045 2.16495 9.8565C2.67041 9.07864 3.55519 8.9488 4.69256 9.46757C5.82992 9.8565 7.34661 10.8937 8.35754 9.8565C9.4949 8.04111 2.67041 3.37337 1.40631 4.4109C-0.615546 6.74477 -0.110082 12.7088 0.7747 15.4319V15.4319Z" fill="url(#paint2_linear)"/>
<defs>
<linearGradient id="paint0_linear" x1="5.29722" y1="12.1627" x2="8.5213" y2="23.576" gradientUnits="userSpaceOnUse">
<stop stop-color="#1C6C0C"/>
<stop offset="0.31" stop-color="#298516"/>
<stop offset="0.451" stop-color="#529D25"/>
<stop offset="1" stop-color="#89CF3E"/>
</linearGradient>
<linearGradient id="paint1_linear" x1="10.3706" y1="2.58281" x2="2.18673" y2="17.7897" gradientUnits="userSpaceOnUse">
<stop stop-color="#1C6C0C"/>
<stop offset="0.6" stop-color="#3A881E"/>
<stop offset="0.722" stop-color="#5BA62D"/>
<stop offset="1" stop-color="#59A530"/>
</linearGradient>
<linearGradient id="paint2_linear" x1="7.63373" y1="6.34906" x2="0.734671" y2="13.5372" gradientUnits="userSpaceOnUse">
<stop stop-color="#1C6C0C"/>
<stop offset="0.749" stop-color="#43911E"/>
<stop offset="1" stop-color="#6AB731"/>
</linearGradient>
</defs>
</svg>

<svg width="12" height="24" fill="none" xmlns="http://www.w3.org/2000/svg"><path fill-rule="evenodd" clip-rule="evenodd" d="M3.148 23.987c.252-.648.758-.908 1.264-1.167 0 0-.127-.26-.38-.907 0-.26.127-.39.253-.39.758-.13 1.264-.389 1.643-.778.506-.518.758-1.166.758-1.685-.632-.13-1.137 0-1.643.26-.505.259-1.01.648-1.263 1.166-.127 0-.253-.13-.253-.13 0-.648.253-1.166.758-1.426 1.39-.907 2.483-1.234 3.873-2.27 2.673-2.267 2.814-3.067 3.517-5.6-2.672 4.266-10.41 5.066-9.791 10.334.126.26 1.01 2.464 1.264 2.593z" fill="url(#paint0_linear)"/><path fill-rule="evenodd" clip-rule="evenodd" d="M4.159 0L1.504 3.371c2.275.908 7.583 3.501 7.204 6.483 0 .39-.379.908-1.01 1.297-2.528 1.815-6.46 3.203-6.714 6.574 0 .778.184 1.885.563 2.533C2.053 12.738 22.99 13.485 4.16 0z" fill="url(#paint1_linear)"/><path fill-rule="evenodd" clip-rule="evenodd" d="M.775 15.432c0 .259.126.389.252.389.38-1.037.632-2.075.759-2.982-.38-1.427-.253-2.335.379-2.982.505-.778 1.39-.908 2.528-.39 1.137.39 2.654 1.427 3.665.39C9.495 8.04 2.67 3.373 1.406 4.41-.616 6.745-.11 12.709.775 15.43z" fill="url(#paint2_linear)"/><defs><linearGradient id="paint0_linear" x1="5.297" y1="12.163" x2="8.521" y2="23.576" gradientUnits="userSpaceOnUse"><stop stop-color="#1C6C0C"/><stop offset=".31" stop-color="#298516"/><stop offset=".451" stop-color="#529D25"/><stop offset="1" stop-color="#89CF3E"/></linearGradient><linearGradient id="paint1_linear" x1="10.371" y1="2.583" x2="2.187" y2="17.79" gradientUnits="userSpaceOnUse"><stop stop-color="#1C6C0C"/><stop offset=".6" stop-color="#3A881E"/><stop offset=".722" stop-color="#5BA62D"/><stop offset="1" stop-color="#59A530"/></linearGradient><linearGradient id="paint2_linear" x1="7.634" y1="6.349" x2=".735" y2="13.537" gradientUnits="userSpaceOnUse"><stop stop-color="#1C6C0C"/><stop offset=".749" stop-color="#43911E"/><stop offset="1" stop-color="#6AB731"/></linearGradient></defs></svg>
